www/assets/icons/tour.svg

<svg xmlns="http://www.w3.org/2000/svg" width="24" height="24" viewBox="0 0 24 24" fill='currentColor'><path d="M20 4H6V2H4v20h2v-8h14l-2-5zm-6 5c0 1.1-.9 2-2 2s-2-.9-2-2 .9-2 2-2 2 .9 2 2"/></svg>

<svg width="24" height="24" viewBox="0 0 24 24" xmlns="http://www.w3.org/2000/svg" fill='currentColor'><path d="M20 4H6V2H4V22H6V14H20L18 9L20 4ZM14 9C14 10.1 13.1 11 12 11C10.9 11 10 10.1 10 9C10 7.9 10.9 7 12 7C13.1 7 14 7.9 14 9Z"/></svg>
